X: 1320
T: Carl Piglich Waltz No 3
B: australian traditional tunes wiki
M:3/4
L:1/8
R: Waltz
Q: 1/4=100
K:Amaj
V:1 
A, CE|:"F#m"F4E2|"A"A,4F2|"E7"E6|G,6|E3EE2|D2E2D2|"A"C6|C2z A, CE|
"D"F6|A4F2|"A"E6|C4E2|"E7"G2F2E2|D2C2B,2|"A"A,3A,A,2|1A,2zA, CE:|2A,4z2||
|:"A"CD EF G2|AG FE DC|"E7"B,2G,2B,2|E3EE2|B,C DEF2|GF ED CB,|1"A"C2A,2C2|"D"E3EE2:|2"A"A,2C2E2|A4||
% abcbook-tune_id 6342d53a63cbbc07312c123e


% abcbook-boost 0
% abcbook-tablature 
% abcbook-transpose 
% abcbook-lastupdated 1665324359051
% abcbook-soundfonts 
% abcbook-repeats 1
% NFF Book 2022
% Bush Traditions recording played by Ray Mulligan

